X:713
T:Herr Rolloff's Farewell
C:James Scott Skinner
B:Harp & Claymore
Z:Nigel Gatherer
M:4/4
L:1/8
K:F
C | A2 B>G c2 A>F | f2 e>d c2 F2 | E2 F2  D2 EF | B2 A2 G3
C | A2 B>G c2 A>F | f2 e>d c2 F2 | E2 F>D C2 FB | A2 G2 F3 ||
A | A2 d>e f2 ed  | e2 A2  d3  G | G2 cd  e2 dc | d2 G2 c3
C | A2 B>G c2 A>F | f2 B>d c2 AF | E2 F2  C2 FB | A2 G2 F3 ||
<end>
<start>
